X: 6553
T: Catharsis
R: reel
M: 4/4
K: Gminor
|:"Gm"DFGF DFGF|DFGA "F"BGAF|"Gm"DFGF DFGF|"EbM7"DEDC "Dm7"B,CA,B,|"Gm"G,FGF DFGF|
"Gm"DFGA "Cm"B2Bc|1 "EbM7"dcBA BAGF|"Dm7"DGGF "Gm"G4:|2 "EbM7"dcBA BAGF|"Dm7"DGGF "Gm"GABc||
|:"Gm"dGGc GGBG|GAGG AGAc|"F"dFFc FFBF|FAFF AGAc|"EbM7"dEEc EEBE|
EAEE AGAc|1 "Dm"dcBA BAGF|DGGF "Gm"GABc:|2 "EbM7"dcBA "F"BAGF|"Dm"DGGF "Gm"G4||

